icons/font-size.svg

<svg viewBox="0 0 24 24" fill="currentColor" xmlns="http://www.w3.org/2000/svg"><path d="M11.246 15H4.75416L2.75416 20H0.600098L7.0001 4H9.0001L15.4001 20H13.246L11.246 15ZM10.446 13L8.0001 6.88516L5.55416 13H10.446ZM21.0001 12.5351V12H23.0001V20H21.0001V19.4649C20.4118 19.8052 19.7287 20 19.0001 20C16.791 20 15.0001 18.2091 15.0001 16C15.0001 13.7909 16.791 12 19.0001 12C19.7287 12 20.4118 12.1948 21.0001 12.5351ZM19.0001 18C20.1047 18 21.0001 17.1046 21.0001 16C21.0001 14.8954 20.1047 14 19.0001 14C17.8955 14 17.0001 14.8954 17.0001 16C17.0001 17.1046 17.8955 18 19.0001 18Z"/></svg>

<svg xmlns="http://www.w3.org/2000/svg" viewBox="0 0 24 24">
    <g>
        <path fill="none" d="M0 0h24v24H0z"/>
        <path d="M11.246 15H4.754l-2 5H.6L7 4h2l6.4 16h-2.154l-2-5zm-.8-2L8 6.885 5.554 13h4.892zM21 12.535V12h2v8h-2v-.535a4 4 0 1 1 0-6.93zM19 18a2 2 0 1 0 0-4 2 2 0 0 0 0 4z"/>
    </g>
</svg>
